img/icones/cursos-icon.svg

<svg width="25" height="25" viewBox="0 0 25 25" fill="none" xmlns="http://www.w3.org/2000/svg">
<path d="M7.16587 14.066L6.12826 15.4764L6.88138 16.8603L8.55331 16.612L8.61892 16.6815L8.38459 18.453L9.69072 19.2509L11.0219 18.1516L11.1126 18.1781L11.7438 19.8369H13.2531L13.8844 18.1781L13.9751 18.1516L15.3063 19.2509L16.6124 18.453L16.3781 16.6815L16.4437 16.612L18.1156 16.8603L18.8687 15.4764L17.8311 14.066L17.8562 13.9699L19.4187 13.3011V11.702L17.8562 11.0332L17.8311 10.9371L18.8687 9.52667L18.1156 8.1428L16.4437 8.39107L16.3781 8.32156L16.6124 6.55013L15.3063 5.75218L13.9751 6.85154L13.8844 6.82498L13.2531 5.16949H11.7438L11.1126 6.82498L11.0219 6.85154L9.69072 5.75218L8.38459 6.55013L8.61892 8.32156L8.55331 8.39107L6.88138 8.1428L6.12826 9.52667L7.16587 10.9371L7.1408 11.0332L5.57831 11.702V13.3011L7.1408 13.9699L7.16587 14.066ZM12.5003 9.073C14.2878 9.073 15.7347 10.6061 15.7347 12.4999C15.7347 14.3937 14.2878 15.9268 12.5003 15.9268C10.7129 15.9268 9.26591 14.3937 9.26591 12.4999C9.26591 10.6061 10.7129 9.073 12.5003 9.073Z" fill="url(#paint0_linear_18_513)"/>
<path d="M5.67201 5.26524C8.92518 1.81846 13.9566 1.2822 17.7657 3.9243L19.3001 2.29861C14.6032 -1.2209 8.24098 -0.648156 4.16566 3.66935C0.481359 7.56974 -0.312554 13.4497 2.01874 18.2146L0 20.3535H5.01884V15.0359L3.61265 16.5258C2.08135 12.7449 2.8251 8.27853 5.6719 5.26554L5.67201 5.26524Z" fill="url(#paint1_linear_18_513)"/>
<path d="M19.9811 4.64624V9.96378L21.3873 8.4739C22.9186 12.2551 22.1748 16.7218 19.331 19.7348C16.0779 23.1815 11.0465 23.7178 7.23735 21.0757L5.70299 22.7014C10.3998 26.2209 16.7621 25.6482 20.8374 21.3307C24.5187 17.43 25.3125 11.5497 22.9813 6.78543L25 4.64654L19.9811 4.64624Z" fill="url(#paint2_linear_18_513)"/>
<defs>
<linearGradient id="paint0_linear_18_513" x1="12.4985" y1="5.16949" x2="12.4985" y2="19.8369" gradientUnits="userSpaceOnUse">
<stop stop-color="#82CCFF"/>
<stop offset="1" stop-color="#0088FF"/>
</linearGradient>
<linearGradient id="paint1_linear_18_513" x1="9.65004" y1="0" x2="9.65004" y2="20.3535" gradientUnits="userSpaceOnUse">
<stop stop-color="#82CCFF"/>
<stop offset="1" stop-color="#0088FF"/>
</linearGradient>
<linearGradient id="paint2_linear_18_513" x1="15.3515" y1="4.64624" x2="15.3515" y2="25" gradientUnits="userSpaceOnUse">
<stop stop-color="#82CCFF"/>
<stop offset="1" stop-color="#0088FF"/>
</linearGradient>
</defs>
</svg>

<svg width="25" height="25" fill="none" xmlns="http://www.w3.org/2000/svg"><path d="m7.166 14.066-1.038 1.41.753 1.384 1.672-.248.066.07-.234 1.771 1.306.798 1.33-1.1.092.027.63 1.659h1.51l.631-1.659.091-.026 1.331 1.099 1.306-.798-.234-1.771.066-.07 1.672.248.753-1.384-1.038-1.41.025-.096 1.563-.669v-1.599l-1.563-.669-.025-.096 1.038-1.41-.753-1.384-1.672.248-.066-.07.234-1.77-1.306-.799-1.33 1.1-.092-.027-.63-1.656h-1.51l-.631 1.656-.091.027-1.331-1.1-1.306.798.234 1.772-.066.07-1.672-.25-.753 1.385 1.038 1.41-.025.096-1.563.669v1.6l1.563.668.025.096ZM12.5 9.073c1.788 0 3.235 1.533 3.235 3.427 0 1.894-1.447 3.427-3.235 3.427-1.787 0-3.234-1.533-3.234-3.427 0-1.894 1.447-3.427 3.234-3.427Z" fill="url(#a)"/><path d="M5.672 5.265c3.253-3.447 8.285-3.983 12.094-1.34L19.3 2.298C14.603-1.221 8.241-.648 4.166 3.669.48 7.57-.313 13.45 2.019 18.215L0 20.354h5.019v-5.318l-1.406 1.49c-1.532-3.781-.788-8.247 2.059-11.26Z" fill="url(#b)"/><path d="M19.981 4.646v5.318l1.406-1.49c1.532 3.781.788 8.248-2.056 11.26-3.253 3.447-8.284 3.984-12.094 1.342L5.703 22.7c4.697 3.52 11.06 2.947 15.134-1.37 3.682-3.901 4.476-9.781 2.144-14.546L25 4.647h-5.019Z" fill="url(#c)"/><defs><linearGradient id="a" x1="12.498" y1="5.169" x2="12.498" y2="19.837" gradientUnits="userSpaceOnUse"><stop stop-color="#82CCFF"/><stop offset="1" stop-color="#08F"/></linearGradient><linearGradient id="b" x1="9.65" y1="0" x2="9.65" y2="20.354" gradientUnits="userSpaceOnUse"><stop stop-color="#82CCFF"/><stop offset="1" stop-color="#08F"/></linearGradient><linearGradient id="c" x1="15.351" y1="4.646" x2="15.351" y2="25" gradientUnits="userSpaceOnUse"><stop stop-color="#82CCFF"/><stop offset="1" stop-color="#08F"/></linearGradient></defs></svg>
